public/svgs/duotone/cactus.svg

<svg xmlns="http://www.w3.org/2000/svg" viewBox="0 0 512 512"><!-- Font Awesome Pro 6.0.0-alpha2 by @fontawesome - https://fontawesome.com License - https://fontawesome.com/license (Commercial License) --><defs><style>.fa-secondary{opacity:.4}</style></defs><path d="M96 208.004V144.004C96 117.505 74.5 96.005 48 96.005S0 117.505 0 144.004V208.004C0 269.878 50.125 320.002 112 320.002H160V224.003H112C103.125 224.003 96 216.878 96 208.004ZM464 224.003C437.5 224.003 416 245.503 416 272.003V336.002C416 344.877 408.875 352.002 400 352.002H352V448.001H400C461.875 448.001 512 397.876 512 336.002V272.003C512 245.503 490.5 224.003 464 224.003Z" class="fa-secondary"/><path d="M261.125 0.131C234.875 -1.244 209.125 8.256 190 26.381C170.875 44.505 160 69.63 160 96.005V480C160 497.625 174.375 512 192 512H320C337.625 512 352 497.625 352 480V101.38C352 49.38 313.125 2.881 261.125 0.131ZM224 176.004C215.125 176.004 208 168.879 208 160.004C208 151.129 215.125 144.004 224 144.004S240 151.129 240 160.004C240 168.879 232.875 176.004 224 176.004ZM288 400.001C279.125 400.001 272 392.876 272 384.001C272 375.127 279.125 368.002 288 368.002S304 375.127 304 384.001C304 392.876 296.875 400.001 288 400.001Z" class="fa-primary"/></svg>

<svg xmlns="http://www.w3.org/2000/svg" viewBox="0 0 512 512"><!--! Font Awesome Pro 6.5.1 by @fontawesome - https://fontawesome.com License - https://fontawesome.com/license (Commercial License) Copyright 2023 Fonticons, Inc. --><defs><style>.fa-secondary{opacity:.4}</style></defs><path class="fa-secondary" d="M96 144c0-26.5-21.5-48-48-48S0 117.5 0 144v64c0 61.9 50.1 112 112 112h48V224H112c-8.8 0-16-7.2-16-16V144zM416 272v64c0 8.8-7.2 16-16 16H352v96h48c61.9 0 112-50.1 112-112V272c0-26.5-21.5-48-48-48s-48 21.5-48 48z"/><path class="fa-primary" d="M160 96c0-53 43-96 96-96s96 43 96 96V464c0 26.5-21.5 48-48 48H208c-26.5 0-48-21.5-48-48V96zm80 64a16 16 0 1 0 -32 0 16 16 0 1 0 32 0zm48 240a16 16 0 1 0 0-32 16 16 0 1 0 0 32z"/></svg>
